X:1
T:Passo la notte
T:Giovanni Animuccia
T:Source : Secondo libro delle Laude spirituali a tre et a quattro voci---Roma---A.Gardano---1583. Editor ; André Vierendeels (27/11/17). Notes : Original clefs : C1, C2, C4 Editorial accidentals above  the staff Music compiled by Francisco Soto de Langa
T:Passo la notte
T:©
C:Giovanni Animuccia
Z:©
%%score [ 1 2 3 ]
L:1/8
Q:1/4=120
M:2/2
K:F
V:1 treble nm="Soprano" snm="S"
V:2 treble nm="Alto" snm="A"
V:3 treble-8 nm="Tenor" snm="T"
V:1
"^1)" F2 FG A2 B2 | c4 c4 | c2 cB A2 A2 | G4 G4 :: z4 G2 GG | F2 E2 D4 | C4 F2 FG | A2 B2 G4 | %8
w: Pas- so la not- te|bu- ia,|ec- co ve- nu- to'il|gior- no,|tut- to di|lu- ce'a- dor-|no'Al- le- lu- ia|Al- le- lu-|
w: Quel Si- gnor che fu|mor- to,|nell' as- pra'et du- ra|Cro- ce,|vin- ta la|mor- te'a- tro-|ce, hog- gi vi-|vo'et ri- sor-|
 F8 :| %9
w: ia.|
w: to.|
V:2
"^2)""^1)" C2 CC F2 F2 | G4 G4 | A2 AG E2 F2 | E4 E4 :: z4 E2 ED |"^-natural" D2 C4 B,2 | %6
w: Pas- so la not- te|bu- ia,|ec- co ve- nu- to'il|gior- no,|tut- to di|lu- ce'a- dor-|
w: E- sce da chiu- sa|pie- tra,|qua- si fol- go- re'ar-|den- te,|on- de l'ar-|ma- ta gen-|
 C4 D2 DD | F2 D2 E4 | F8 :| %9
w: no'Al- le- lu- ia,|Al- le- lu-|ia.|
w: te, sbi- got- ti|ta, s'ar- ret-|ra.|
V:3
"^3)""^1)""^4)" F2 FE D2 D2 | C4 C4 | F2 FG A3 B | c4 c4 :: z4 c2 cG | B2 c2 G4 | c4 B2 BG | %7
w: Pas- so la not- te|bu- ia,|ec- co ve- nu- to'il|gior- no,|tut- to di|lu- ce'a- dor-|no'Al- le- lu- ia,|
w: L'em- ple ne- mi- che|squa- dre,|ca- do- no'à ter- ra|mor- te,|deh chi fia|che ne por-|te, no- v'all' af-|
 d2 B2 c4 | F8 :| %9
w: Al- le- lu-|ia.|
w: flit- ta Ma-|dre.|

